assets/Womans boot/Flat/womans_boot_flat.svg

<svg width="32" height="32" viewBox="0 0 32 32" fill="none" xmlns="http://www.w3.org/2000/svg">
<path d="M2.00999 21.9016H10.8673L13.4437 27.3937H30.0139C30.0139 26.1078 29.6514 25.0557 29.2656 24.2496C27.635 20.8426 23.8467 21.3192 21.4322 20.1241C21.0628 19.9444 20.7033 19.7446 20.3638 19.525C18.8359 18.5563 18.0017 16.8488 18.0017 15.0414V4.08702C18.0017 2.93866 17.063 2 15.9147 2H4.08702C2.93866 2 2 2.93866 2 4.08702" fill="#CA0B4A"/>
<path d="M14.1119 30.0017C12.3944 29.9918 11.0071 28.562 10.9971 26.8345C10.8673 23.9486 8.3709 23.9287 8.3709 23.9287H7.07275V29.5307C7.07275 29.7903 6.86305 30 6.60342 30H2.4893C2.22967 30 2.01997 29.7903 2.01997 29.5307V24.6876H2V21.3723C2 21.3723 4.53638 21.3723 9.10984 21.3723C12.7247 21.3723 13.2439 23.4993 13.4237 24.7974C13.6534 26.4051 14.1926 27.3937 16.3495 27.3937H30.0132V29.291C30.0132 29.6705 29.5998 30.0117 29.2203 30.0117L14.1119 30.0017Z" fill="#F3C07B"/>
<path d="M6.98297 14.9914C6.44374 14.9914 5.99438 14.5521 5.99438 14.0029V2H7.97156V14.0029C7.97156 14.5521 7.53219 14.9914 6.98297 14.9914Z" fill="#F3C07B"/>
</svg>

<svg xmlns="http://www.w3.org/2000/svg" width="32" height="32" fill="none"><path fill="#CA0B4A" d="M2.01 21.902h8.857l2.577 5.492h16.57c0-1.286-.363-2.338-.748-3.144-1.631-3.407-5.42-2.93-7.834-4.126-.37-.18-.729-.38-1.068-.599-1.528-.969-2.362-2.676-2.362-4.484V4.087A2.093 2.093 0 0 0 15.915 2H4.087A2.093 2.093 0 0 0 2 4.087"/><path fill="#F3C07B" d="M14.112 30.002c-1.718-.01-3.105-1.44-3.115-3.168-.13-2.885-2.626-2.905-2.626-2.905H7.073v5.602c0 .26-.21.469-.47.469H2.49c-.26 0-.469-.21-.469-.47v-4.842H2v-3.316h7.11c3.615 0 4.134 2.127 4.314 3.425.23 1.608.769 2.597 2.925 2.597h13.664v1.897c0 .38-.413.72-.793.72l-15.108-.01ZM6.983 14.991a.99.99 0 0 1-.989-.988V2h1.978v12.003c0 .55-.44.988-.989.988Z"/></svg>
